X:1
T:Puisqu'en amour
T:Clement Morel
T:Source : Livre XX de 28 chansons nouvelles à 4 parties---Paris---P.Attaingnant---1546. Editor : André Vierendeels (21/07/18) Notes : Original clefs : C1, C3, C4, F3 Original note values have been halved Editorial accidentals above the staff
T:Puisqu'en amour
T:©
T:©
T:©
T:©
C:Clement Morel
Z:©
%%score [ 1 2 3 4 ]
L:1/8
Q:1/4=120
M:2/2
K:C
V:1 treble nm="Soprano" snm="S"
V:2 treble nm="Alto" snm="A"
V:3 treble-8 nm="Tenor" snm="T"
V:4 bass nm="Bass" snm="B"
V:1
 G4 c4- | c4 A4 | G8 | z2 G2 c2 c2 | B2 B2 A2 G2- | GABG A2 G2- |"^#" G2 F2 G4- | G8 | %8
w: Puis- qu'en|_ a-|mour,|dieu nest poinct|of- fen- * *||* * cé,|_|
 z2 G2 G2 G2 | d2 B2 c2 e2- | edcB cBAG | AG c4 B2 | c2 c2 B4 | A8 | z2 A2 A2 A2 | B4 z2 B2 | %16
w: et que la|fin où lon pre-|||tendz soyt bon-|ne,|dif- fi- ci-|l'est dos-|
 B2 G2 A2 G2 | c2 BA B3 c | d3 c AB c2- | cBGA B2 A2- | AGFE D2 G2- |"^#" G2 F2 G4 | z8 | %23
w: ter à la per-|son- * * * *||||* * ne,||
 z4 z2 G2- | G2 A2 F2 G2 | E2 F2 D2 G2- | G2 F2 G4 | D4 z4 | z4 z2 d2- | d2 c2 B2 A2- | A2 G4 F2 | %31
w: le|_ bien d'ay- mer|loy- a- le- ment|_ com- men-|ce,|loy-|* a- le- ment|_ com- men-|
 G4 z4 | z8 | z2 G4 A2 | F2 G2 E2 F2 | D2 G4 F2 | G4 D4 | z8 | z2 d4 c2 | B2 A4 G2- | %40
w: ce,||le bien|d'ay- mer loy- a-|le- ment com-|men- ce,||loy- a-|le- ment com-|
"^#" G2 F2 !fermata!G4 |] %41
w: * men- ce.|
V:2
 E8 | F8 | D4 E4- | E4 z2 C2 | G2 G2 F2 E2 | D3 E F2 C2 | D4 z2 E2 | E2 C2 D2 G2 | F2 D2 E2 E2 | %9
w: Puis-|qu'en|a- mour,|_ dieu|nest poinct of- fen-||cé, et|que la fin où|lon pre- tendz soyt|
 F4 E2 C2 | C2 C2 G2 E2 | F2 G2 C2 G2- | GE A3 G G2- |"^#""^#" G2 FE F4- | F4 z2 D2 | D2 D2 G4- | %16
w: bon- ne, et|que la fin où|lon pre- tendz soyt-|* * bon- * *|* * * ne,|_ dif-|fi- ci- l'est|
 G2 E2 F2 D2 | A4 G4 | A3 G F2 E2 | G3 F DE F2- | FG A2 G2 C2 | D4 B,4 | G4 A2 F2 | G2 E2 F2 D2 | %24
w: _ dos- ter à|la per-|son- * * *|||* ne,|le bien d'ay-|mer loy- a- le-|
 G2 F3 E D2 | C4 B,2 A,G, | A,4 z4 | z4 G4 | F2 E2 D4 | z2 E2 F4 | F2 E2 D4 | B,4 G4 | %32
w: ment com- * *|men- * * *|ce,|le|bien d'ay- mer|loy- a-|le- ment comen-|ce, le|
 A2 F2 G2 E2 | F2 D2 G2 F2- | FE D2 C4 | B,2 A,G, A,4 | z8 | G4 F2 E2 | D4 z2 E2 | F4 F2 E2 | %40
w: bien d'ay- mer loy-|a- le- ment com-|* * * men-|* * * ce,||loy- a- me-|ment com-|men- * *|
 D4 !fermata!B,4 |] %41
w: * ce.|
V:3
 c8 | A4 c4 | B4 z2 G2 | c2 c2 A2 A2 | GABc dc c2- | c2 B2 cBAG | A4 G4 | z2 G2 G2 G2 | d2 B2 c4 | %9
w: Puis-|qu'en a-|mour, dieu|nest point of- fen-|||* cé,|et que la|fin où lon|
 d4 G4 | c2 e3 dcB | cBAG AG d2 | e2 f2 d4- | d4 z2 A2 | A2 A2 d4 | z2 d2 d2 d2 | G2 c2 c2 B2 | %17
w: pre- tendz|soyt bon- * * *||* * ne,|_ dif-|fi- ci- l'est,|dif- fi- ci-|l'est dos- ter à|
 c2 d3 cde | f3 e cd e2- | ed B3 c d2- | d2 c2 B2 AG | A4 G2 d2- | d2 e2 c2 d2 | B2 c2 A2 d2- | %24
w: la per- son- * *||||* ne, le|_ bien d'ay- mer|loy- a- le- ment|
 d2 c2 d4 | A4 z4 | z2 d2 c2 B2 | A4 z2 d2- | d2 c2 A2 B2 | c2 A2 d4 | c2 B2 A4 | G2 d4 e2 | %32
w: _ com- men-|ce,|le bien d'ay-|mer le|_ bien d'ay- mer|loy- a- le-|ment com- men-|ce, le bien|
 c2 d2 B2 c2 | A2 d4 c2 | d4 A4 | z4 d4 | c2 B2 A4 | z2 d4 c2 | A2 B2 c2 A2 | d4 c2 B2 | %40
w: d'ay- mer loy- a-|le- ment com-|men- ce,|le|bien d'ay- mer|le bien|d'ay- mer loy- a-|le- ment com-|
 A4 !fermata!G4 |] %41
w: men- ce.|
V:4
 C,8 | F,8 | G,4 C,4- | C,4 z4 | z4 z2 C,2 | G,2 G,2 F,2 E,2 | D,4 G,,2 C,2 | C,2 C,2 G,2 E,2 | %8
w: Puis-|qu'en|a- mour,|_|dieu|nest poinct of- *|fen- cé, et|que la fin où|
 F,2 G,2 C,2 E,2 | D,4 C,4 | z2 C,2 C,2 C,2 | F,2 E,2 F,2 G,2 | C,2 F,2 G,4 | D,8 | %14
w: lon pre- tendz soyt|bon- ne,|et que la|fin où lon pre-|tendz soyt bon-|ne,|
 z2 D,2 D,2 D,2 | G,8 | z2 C,2 F,2 G,2 | A,2 F,2 G,3 F, | D,E, F,3 E, C,2- | C,D,E,F, G,2 D,2 | %20
w: dif- fi- ci-|l'est|dos- ter à|la per- son- *|||
 F,4 G,2 E,2 | D,4 G,4- | G,4 z4 | G,2 A,2 F,2 G,2 | E,2 F,2 D,2 G,2- | G,2 F,2 G,4 | %26
w: |* ne,|_|le bien d'ay- mer|loy- a- le- ment|_ com- men-|
"^#" D,4 z2 G,2- | G,2 F,2 E,2 G,2 | D,2 E,2 F,2 G,2 | A,4 D,3 E, | F,2 G,2 D,4 | G,8 | %32
w: ce, le|_ bien d'ay- mer|loy- a- le- ment|com- men- *||ce,|
 z4 G,2 A,2 | F,2 G,2 E,2 F,2 | D,2 G,4 F,2 | G,4 D,4 | z2 G,4 F,2 | E,2 G,2 D,2 E,2 | %38
w: le bien|d'ay- mer loy- a-|le- ment com-|men- ce,|le bien|d'ay- mer loy- a-|
 F,2 G,2 A,4 | D,3 E, F,2 G,2 | D,4 !fermata!G,4 |] %41
w: le- ment com-|men- * * *|* ce|

